X: 139
T:Paddy Canny's Jig
R:jig
S:Liz Carroll, Boston 1999, Gaelic Roots
Z:alf.
M:6/8
L:1/8
Q:3/8=120
K:F
|:DGA B2c| dgf dcA| BDd cBA| BAG FDC|
DGA B2c| dgf dcA| BDd cBA| BDF G3:|
|:Gga bag| a^fd c=Bc| =BDd cBA| =BAG A^FD
[1 Gga bag| a^fd c=Bc| dba g^fd| gd^f g3:|
[2 BDB c2c| dba g^fd| BDd cBA| BDF G2A||
|:BGd BGd| AFc AFc| BGd BGB| daf g2a|bag agf|
[1 dgf dcA| BDd cBA| BDF G2A:|
[2 gfd cBA| BDd cBA| BDF G3|]
